src/icons/favorite.icon.svg

<svg width="24px" height="24px" viewBox="0 0 24 24" version="1.1" xmlns="http://www.w3.org/2000/svg" xmlns:xlink="http://www.w3.org/1999/xlink">
    <!-- Generator: Sketch 49.2 (51160) - http://www.bohemiancoding.com/sketch -->
    <title>IconFavorite</title>
    <desc>Created with Sketch.</desc>
    <defs></defs>
    <g id="Page-1" stroke="none" stroke-width="1" fill="none" fill-rule="evenodd">
        <g id="IconFavorite">
            <path d="M16.4730679,3 C18.034356,3 19.3458183,3.52173391 20.4074941,4.56521739 C21.46917,5.60870087 22,6.88234542 22,8.38618926 C22,9.12276583 21.8438735,9.86700391 21.5316159,10.6189258 C21.2193583,11.3708477 20.8758801,12.0383603 20.501171,12.6214834 C20.1264618,13.2046065 19.4941496,13.9565171 18.6042155,14.8772379 C17.7142813,15.7979586 16.9648742,16.5421966 16.3559719,17.1099744 C15.7470696,17.6777522 14.7712792,18.5447512 13.4285714,19.7109974 L11.9765808,21 L10.5245902,19.7570332 C9.2131082,18.5600963 8.24512412,17.6777522 7.6206089,17.1099744 C6.99609368,16.5421966 6.23888033,15.7979586 5.34894614,14.8772379 C4.45901194,13.9565171 3.82669977,13.2046065 3.45199063,12.6214834 C3.0772815,12.0383603 2.7416096,11.3708477 2.44496487,10.6189258 C2.14832014,9.86700391 2,9.12276583 2,8.38618926 C2,6.88234542 2.53082998,5.60870087 3.59250585,4.56521739 C4.65418173,3.52173391 5.95003138,3 7.48009368,3 C9.29118782,3 10.7900019,3.69053018 11.9765808,5.07161125 C13.1631597,3.69053018 14.6619738,3 16.4730679,3 Z M12.0702576,18.2838875 C13.6003199,16.9334971 14.7166241,15.928392 15.4192037,15.2685422 C16.1217834,14.6086924 16.8946094,13.8184189 17.7377049,12.8976982 C18.5808005,11.9769775 19.1662747,11.171359 19.4941452,10.4808184 C19.8220157,9.79027788 19.9859485,9.09207514 19.9859485,8.38618926 C19.9859485,7.40408716 19.6502766,6.59079606 18.9789227,5.94629156 C18.3075689,5.30178706 17.4722923,4.97953964 16.4730679,4.97953964 C15.7236496,4.97953964 15.0132742,5.19437125 14.3419204,5.62404092 C13.6705665,6.05371059 12.2810319,7.32480481 12,8 C11.7501939,7.32480481 10.3294335,6.05371059 9.65807963,5.62404092 C8.98672576,5.19437125 8.2607377,4.97953964 7.48009368,4.97953964 C6.48086932,4.97953964 5.65339906,5.30178706 4.99765808,5.94629156 C4.3419171,6.59079606 4.01405152,7.40408716 4.01405152,8.38618926 C4.01405152,9.09207514 4.17017799,9.79027788 4.4824356,10.4808184 C4.79469321,11.171359 5.38016745,11.9769775 6.23887588,12.8976982 C7.09758431,13.8184189 7.87821663,14.6086924 8.58079625,15.2685422 C9.28337588,15.928392 10.3840674,16.9334971 11.882904,18.2838875 L11.9765808,18.3759591 L12.0702576,18.2838875 Z" id="FAVORITE" fill="currentColor"></path>
        </g>
    </g>
</svg>

<svg xmlns="http://www.w3.org/2000/svg" viewBox="0 0 24 24"><path d="M16.473 3c1.561 0 2.873.522 3.934 1.565C21.47 5.61 22 6.882 22 8.386c0 .737-.156 1.481-.468 2.233-.313.752-.656 1.42-1.03 2.002-.376.584-1.008 1.336-1.898 2.256-.89.921-1.64 1.665-2.248 2.233a123.94 123.94 0 01-2.927 2.601L11.977 21l-1.452-1.243c-1.312-1.197-2.28-2.08-2.904-2.647a50.97 50.97 0 01-2.272-2.233c-.89-.92-1.522-1.672-1.897-2.256-.375-.583-.71-1.25-1.007-2.002A6.051 6.051 0 012 8.386c0-1.504.53-2.777 1.593-3.82C4.654 3.521 5.95 3 7.48 3c1.811 0 3.31.69 4.497 2.072C13.163 3.69 14.662 3 16.473 3zM12.07 18.284c1.53-1.35 2.647-2.356 3.35-3.015.702-.66 1.475-1.45 2.318-2.371s1.428-1.727 1.756-2.417a4.84 4.84 0 00.492-2.095c0-.982-.336-1.795-1.007-2.44-.671-.644-1.507-.966-2.506-.966-.75 0-1.46.214-2.131.644C13.67 6.054 12.28 7.324 12 8c-.25-.675-1.67-1.946-2.342-2.376A3.965 3.965 0 007.48 4.98c-1 0-1.827.322-2.482.966-.656.645-.984 1.458-.984 2.44 0 .706.156 1.404.468 2.095.313.69.898 1.496 1.757 2.417.859.92 1.64 1.71 2.342 2.37.702.66 1.803 1.665 3.302 3.016l.094.092.093-.092z" fill="currentColor" fill-rule="evenodd"/></svg>
